16x16/apps/kontact-import-wizard.svg

<svg height="16" width="16" xmlns="http://www.w3.org/2000/svg"><path d="m8 0-7.636 4.927c-.016.01-.031.023-.047.035l-.01.007v.001a.795.795 0 0 0 -.307.628v7.602c0 .443.357.8.8.8h14.4c.443 0 .8-.357.8-.8v-7.603a.796.796 0 0 0 -.32-.637l.003-.005z" fill="#fe9700"/><path d="m2 2h12v10h-12z" fill="#ebebeb"/><path d="m0 5.598 15.2 10.4h-14.343c-.057 0-.857 0-.857-.857z" fill="#fec006"/><path d="m15.143 15.998c.857 0 .857-.857.857-.857v-9.543l-15.2 10.4z" fill="#fecd38"/><path d="m8 3-2 3h1v1.75c0 .163.092.25.25.25h1.5c.158 0 .25-.087.25-.25v-1.75h1z" fill="#848484"/></svg>

<svg height="16" width="16" xmlns="http://www.w3.org/2000/svg">
    <path d="M8 0 .364 4.927c-.016.01-.031.023-.047.035l-.01.007v.001A.795.795 0 0 0 0 5.598V13.2c0 .443.357.8.8.8h14.4c.443 0 .8-.357.8-.8V5.597a.796.796 0 0 0-.32-.637l.003-.005z" fill="#fe9700"/>
    <path d="M2 2h12v10H2z" fill="#ebebeb"/>
    <path d="m0 5.598 15.2 10.4H.857c-.057 0-.857 0-.857-.857z" fill="#fec006"/>
    <path d="M15.143 15.998c.857 0 .857-.857.857-.857V5.598L.8 15.998z" fill="#fecd38"/>
    <path d="M8 3 6 6h1v1.75c0 .163.092.25.25.25h1.5c.158 0 .25-.087.25-.25V6h1z" fill="#848484"/>
</svg>
